X:1
T:O Holy Night
T:Cantique de Noël
T:Placide Cappeau Tr. John Sullivan Dwight, alt.
T:Adolphe Adam
T:Text and Music are in the Public Domain
T:Text and Music are in the Public Domain
T:Text and Music are in the Public Domain
T:Text and Music are in the Public Domain
Z:Text and Music are in the Public Domain
%%score ( 1 2 ) { ( 3 6 ) | ( 4 5 ) }
L:1/8
Q:3/8=69
M:12/8
K:Bb
V:1 treble nm="Voice"
V:2 treble 
V:3 bass nm="Piano"
V:6 bass 
V:4 bass 
V:5 bass 
V:1
"^Andante Maestoso" z12 |: z6!mf! D3 D2 D | F3- F2 F G2 G E2 G | B6 F z F D2 C | B,3 D2 E F3 E2 C | %5
w: |O ho- ly|night! * the stars are bright- ly|shin- ing, It is the|night of the dear Sav- ior's|
w: |With hum- ble|hearts * we bow in ad- o-|ra- tion Be- fore this|Child, gift of God's match- less|
 B,6 z2 z4 | z6 D3 D2 D | F3- F2 F G2 G E2 G | B6 F2 F =E2 D | A3 F2 G A3 B2 A | D6 z3 z2!mp! F | %11
w: birth!|Long lay the|world * in sin and er- ror|pin- ing, Till He ap-|peared and the soul felt its|worth. A|
w: love.|Sent from on|high * to pur- chase our sal-|va- tion That we might|dwell with Him ev- er a-|bove. What|
 F3 G3 C3 F3 | G2 F B2 D G3 F2 F | F3 G3 C3 F3 | G2 F B2 D F3- F2 z |!f! B6- B3 A2 G | %16
w: thrill of hope the|wea- ry world re- joic- es, For|yon- der breaks a|new and glo- rious morn! *|Fall * on your|
w: grace un- told— to|leave the bliss of glo- ry And|die for sin- ners|guil- ty and for- lorn. *||
 A6- A3- A2 A | c6- c2 G G2 G | B6 B3 z2 B | d6 c4- c F | (B6- B3 A2) G | F6- F2 F G2 F | %22
w: knees, * * Oh,|hear * the an- gel|voi- ces! O|night _ _ di-|vine, _ _ O|night * when Christ was|
w: ||||||
 F6- F3 z2 B | c6- c3- c2 F | d6- d3 c3 | B6 A3 B2 c | B6 z6 | z12 | z12 | z12 |1 z12 :|2 z12 |] %32
w: born! * O|night * * di-|vine, * O|night, O night di-|vine!||||||
w: ||||||||||
V:2
 x12 |: x12 | x12 | x12 | x12 | x12 | x12 | x12 | x12 | x12 | x12 | x12 | x12 | x12 | x12 | x12 | %16
 x12 | x12 | x12 | x12 | x12 | x12 | x12 | x12 | f6- f3 e3 | d6 c3 x x2 | x12 | x12 | x12 | x12 |1 %30
 x12 :|2 x12 |] %32
V:3
!mf! (D,B,F,DB,F,) (D,B,F,DB,F,) |: (D,B,F,DB,F,) (D,B,F,DB,F,) | (D,B,F,DB,F,) (E,B,G,EB,G,) | %3
 (D,B,F,DB,F,) (D,B,F,DB,F,) | (D,B,F,DB,F,) (E,A,F,CA,F,) | (D,B,F,DB,F,) (D,B,F,DB,F,) | %6
 (D,B,F,DB,F,) (D,B,F,DB,F,) | (D,B,F,DB,F,) (E,B,G,EB,G,) | (D,B,F,DB,F,) (D,^G,F,DG,D,) | %9
 (D,A,F,DA,F,) (=E,A,G,^CA,G,) | (D,A,F,DA,F,)!p! (D,A,F,DA,F,) | (E,A,F,CA,F,) (E,A,F,CA,F,) | %12
 (D,B,F,DB,F,) (D,B,F,DB,F,) | (E,A,F,CA,F,) (E,A,F,CA,F,) | (D,B,F,DB,F,) (D,B,F,DB,F,) | %15
!mf! (D,B,G,DB,G,) (D,B,G,DB,G,) | (D,A,F,DA,F,) (D,A,F,DA,F,) | (E,CG,ECG,) (E,CG,ECG,) | %18
 (D,B,G,DB,G,) (D,B,G,DB,G,) | (D,B,F, DB,F,) (C,A,F, CA,F,) | (F,DB, FDB,) (E,B,G, EB,G,) | %21
 (D,B,F,DB,F,) (C,A,F,CA,F,) | (D,B,F,DB,F,) (D,B,F,DB,F,) | (C,A,F,CA,F,) (C,A,F,CA,F,) | %24
 (F,DB,FDB,) (E,CG,ECG,) | (D,B,F,DB,F,) [E,F,A,C]3 z3 | %26
 [D,F,B,]3 z3[K:treble]!f! [B,FB]3- [B,FB]2 [B,FA] | [B,EA]6 [CEG]3 [CEG]2 [CEG] | %28
 [EFce]6 [DFBd]3 [EGc]3 | [FB]6 TA3- ABc |1 [DB]6 z2 z4 :|2 [DB]12 |] %32
V:4
 [B,,,F,,B,,]12 |: [B,,,F,,B,,]12 | [B,,,F,,B,,]6 [E,,B,,]6 | [B,,,F,,B,,]6 [B,,,B,,]6 | %4
 [F,,,F,,]12 | [B,,,F,,B,,]12 | [B,,,F,,B,,]12 | [B,,,F,,B,,]6 [E,,B,,]6 | %8
 [B,,,F,,B,,]6 [B,,,B,,]6 | [A,,,A,,]6 [A,,,A,,]6 | D,,6 z6 | A,,3 F,,3 A,,3 F,,3 | %12
 B,,3 F,,3 B,,3 F,,3 | A,,3 F,,3 A,,3 F,,3 | B,,3 F,,3 B,,3 x3 |{G,,,-D,,} [G,,,G,,]12 | %16
{D,,,-A,,,} [D,,,D,,]12 |{C,,,-G,,,} [C,,,C,,]12 |{G,,,-D,,} [G,,,G,,]12 | [F,,,F,,]6 [E,,,E,,]6 | %20
 [D,,,D,,]6 [E,,,E,,]6 | [F,,,F,,]6 [F,,,F,,]6 | [B,,,,B,,,]3 [D,,,D,,]3 [F,,,F,,]3 [B,,,B,,]3 | %23
 [F,,,F,,]6 [E,,,E,,]6 | [D,,,D,,]6 [E,,,E,,]6 | [F,,,F,,]6 [F,,,F,,]3 z3 | %26
 (B,,,D,,F,,B,,D,B,,) (D,,F,,B,,D,B,,F,,) | (E,,G,,B,,E,B,,G,,) (C,,E,,G,,C,G,,E,,) | %28
 (A,,,C,,F,,A,,F,,C,,) B,,,F,,B,, E,,,C,,E,, | (F,,,B,,,D,,F,,D,,B,,,) (F,,,C,,E,,F,,E,,C,,) |1 %30
 (B,,,D,,F,,B,,D,F,) (B,F,D,B,,F,,D,,) :|2 B,,,12 |] %32
V:5
 x12 |: x12 | x12 | x12 | x12 | x12 | x12 | x12 | x12 | x12 | x12 | A,,,12 | B,,,12 | A,,,12 | %14
 B,,,6- B,,,3 z3 | x12 | x12 | x12 | x12 | x12 | x12 | x12 | x12 | x12 | x12 | x12 | x6 D,,6 | %27
 E,,6 C,,6 | A,,,6 B,,,3 E,,,3 | F,,,6 F,,,6 |1 x12 :|2 x12 |] %32
V:6
 x12 |: x12 | x12 | x12 | x12 | x12 | x12 | x12 | x12 | x12 | x12 | x12 | x12 | x12 | x12 | %15
 D,6 D,6 | D,6 D,6 | E,6 E,6 | D,6 D,6 | D,6 C,6 | F,6 E,6 | D,6 C,6 | D,6 D,6 | C,6 C,6 | %24
 F,6 E,6 | D,6 x2 x4 | x6[K:treble] x6 | x12 | x12 | D6 E6 |1 x12 :|2 x12 |] %32

